X:1
T: And, PG
C:Bruce Shawyer
R:Strathspey
Q:128
K:D
M:4/4
L:1/16
|:cA3 A3c d3B G3B|A3F DF3 B8|AF3 BF3 GE3 AE3|G3E CE3 D8|
cA3 A3c d3B G3B|A3F DF3 B8|AF3 BF3 GE3 AE3|G3E CE3 D8|
B6c2 d3c Bd3|A6B2 c3B Ac3|B6c2 d3c Bd3 eB3|B3A GE3 E4|
F4 F3G FD3 D4|E4 E3F EC3 C4|F4 F3G FD3 D4|G3E CE3 D8:|
